markets/EOS.svg

<svg width="42" height="42" viewBox="0 0 42 42" fill="none" xmlns="http://www.w3.org/2000/svg">
<g clip-path="url(#clip0_7698_9620)">
<path d="M21 42C32.598 42 42 32.598 42 21C42 9.40202 32.598 0 21 0C9.40202 0 0 9.40202 0 21C0 32.598 9.40202 42 21 42Z" fill="black"/>
<path fill-rule="evenodd" clip-rule="evenodd" d="M21.0039 5.50862C21.1807 5.50719 21.3519 5.58977 21.4603 5.7379L28.1712 14.907C28.2172 14.97 28.2496 15.0418 28.2663 15.118L31.5147 29.9532C31.5653 30.1841 31.4654 30.422 31.265 30.5475L21.3058 36.7871C21.2131 36.8452 21.1082 36.8734 21.0038 36.8726C20.8994 36.8734 20.7946 36.8452 20.7019 36.7871L10.7427 30.5475C10.5423 30.422 10.4424 30.1842 10.493 29.9532L13.7401 15.118C13.7568 15.0418 13.7892 14.9699 13.8353 14.907L20.5474 5.73786C20.6558 5.58976 20.8271 5.50719 21.0039 5.50862ZM20.4393 7.78169L14.9071 15.3389L16.2885 19.6763L20.4393 12.3522V7.78169ZM21.0039 13.6276L16.7517 21.1306L19.4214 29.513H22.5859L25.2555 21.1295L21.0039 13.6276ZM26.008 22.4574L23.7614 29.513H30.0067L26.008 22.4574ZM29.0191 30.633H23.4047L22.0055 35.0271L29.0191 30.633ZM21.0038 34.4815L22.2293 30.633H19.7781L21.0038 34.4815ZM18.2459 29.513L15.9991 22.4584L12.0011 29.513H18.2459ZM12.379 26.5745L15.536 21.0041L14.3875 17.3982L12.379 26.5745ZM12.9886 30.633H18.6026L20.0021 35.027L12.9886 30.633ZM29.6282 26.5736L26.4712 21.003L27.6191 17.3981L29.6282 26.5736ZM27.0993 15.3389L25.7186 19.6751L21.5685 12.3522V7.78196L27.0993 15.3389Z" fill="white"/>
</g>
<defs>
<clipPath id="clip0_7698_9620">
<rect width="42" height="42" fill="white"/>
</clipPath>
</defs>
</svg>

<svg xmlns="http://www.w3.org/2000/svg" width="42" height="42" fill="none"><g clip-path="url(#a)"><path fill="#000" d="M21 42c11.598 0 21-9.402 21-21S32.598 0 21 0 0 9.402 0 21s9.402 21 21 21Z"/><path fill="#fff" fill-rule="evenodd" d="M21.004 5.509a.56.56 0 0 1 .456.229l6.711 9.169a.56.56 0 0 1 .095.21l3.249 14.836a.56.56 0 0 1-.25.594l-9.96 6.24a.56.56 0 0 1-.301.086.56.56 0 0 1-.302-.086l-9.96-6.24a.56.56 0 0 1-.249-.594l3.247-14.835a.56.56 0 0 1 .095-.211l6.712-9.17a.56.56 0 0 1 .457-.228Zm-.565 2.273-5.532 7.557 1.382 4.337 4.15-7.324v-4.57Zm.565 5.845-4.252 7.504 2.67 8.382h3.164l2.67-8.384-4.252-7.502Zm5.004 8.83-2.247 7.056h6.246l-3.999-7.056Zm3.011 8.176h-5.614l-1.4 4.394 7.014-4.394Zm-8.015 3.848 1.225-3.848h-2.45l1.225 3.848Zm-2.758-4.968-2.247-7.055-3.998 7.055h6.245Zm-5.867-2.939 3.157-5.57-1.148-3.606-2.009 9.177Zm.61 4.059h5.614l1.4 4.394-7.014-4.394Zm16.64-4.06-3.158-5.57 1.148-3.605 2.01 9.176Zm-2.53-11.234-1.38 4.336-4.15-7.323v-4.57l5.53 7.557Z" clip-rule="evenodd"/></g><defs><clipPath id="a"><path fill="#fff" d="M0 0h42v42H0z"/></clipPath></defs></svg>
